Newaita-dark/mimetypes/16/text-x-gettext-translation-template.svg

<svg height="16pt" viewBox="0 0 16 16" width="16pt" xmlns="http://www.w3.org/2000/svg" xmlns:xlink="http://www.w3.org/1999/xlink"><linearGradient id="a"><stop offset="0" stop-opacity=".27451"/><stop offset="1" stop-opacity="0"/></linearGradient><linearGradient id="b" gradientUnits="userSpaceOnUse" x1="8.269022" x2="8.269022" xlink:href="#a" y1="14.0169675" y2="14.67848943751"/><linearGradient id="c"><stop offset="0" stop-opacity=".313725"/><stop offset=".222222" stop-opacity=".27451"/><stop offset="1" stop-opacity="0"/></linearGradient><radialGradient id="d" cx="450.90894" cy="189.57936" gradientTransform="matrix(.00000009 -.0390662 -.0703192 -.00000005 24.742284 31.797667)" gradientUnits="userSpaceOnUse" r="21.166656" xlink:href="#c"/><radialGradient id="e" cx="450.90894" cy="189.57936" gradientTransform="matrix(-.00000009 .0390662 .0703192 .00000005 -9.196526 -3.76374)" gradientUnits="userSpaceOnUse" r="21.166656" xlink:href="#c"/><radialGradient id="f" cx="450.90894" cy="189.57936" gradientTransform="matrix(-.00000009 -.0390662 .0703192 -.00000005 -9.196526 31.797667)" gradientUnits="userSpaceOnUse" r="21.166656" xlink:href="#c"/><radialGradient id="g" cx="450.90894" cy="189.57936" gradientTransform="matrix(.00000009 .0390662 -.0703192 .00000005 24.742283 -3.76374)" gradientUnits="userSpaceOnUse" r="21.166656" xlink:href="#c"/><linearGradient id="h" gradientUnits="userSpaceOnUse" x1="7.7728788" x2="7.7728788" y1="14.01696629816" y2="1.44805523664"><stop offset="0" stop-color="#e0e0e0"/><stop offset="1" stop-color="#eee"/></linearGradient><linearGradient id="i" gradientTransform="matrix(.0149471 0 0 .0546927 7.521212 -8.263145)" gradientUnits="userSpaceOnUse" x1="249.18942" x2="249.18942" xlink:href="#a" y1="233.5" y2="254.66669"/><linearGradient id="j"><stop offset="0" stop-color="#9e9e9e"/><stop offset="1" stop-color="#bdbdbd"/></linearGradient><linearGradient id="k" gradientUnits="userSpaceOnUse" x1="10.58434912498" x2="10.58434912498" xlink:href="#j" y1="14.0169675" y2="1.44805256249"/><linearGradient id="l" gradientUnits="userSpaceOnUse" x1="800.00012649104" x2="819.99962862409" xlink:href="#j" y1="1695.11819267241" y2="175.11810090943"/><path d="m3.96875 14.015625h7.609375v.664063h-7.609375zm0 0" fill="url(#b)"/><path d="m11.578125 14.015625h1.320313v-.660156h-1.320313zm0 0" fill="url(#d)"/><path d="m3.96875 14.015625h-1.324219v.664063h1.324219zm0 0" fill="url(#e)"/><path d="m3.96875 14.015625h-1.324219v-.660156h1.324219zm0 0" fill="url(#f)"/><path d="m11.578125 14.015625h1.320313v.664063h-1.320313zm0 0" fill="url(#g)"/><path d="m9.269531 1.449219h-5.960937c-.367188 0-.664063.292969-.664063.660156v11.246094c0 .367187.296875.660156.664063.660156h8.929687c.367188 0 .660157-.292969.660157-.660156v-8.277344zm0 0" fill="url(#h)"/><path d="m2.644531 13.097656v.257813c0 .367187.296875.660156.664063.660156h8.929687c.367188 0 .660157-.292969.660157-.660156v-.257813c0 .367188-.292969.664063-.660157.664063h-8.929687c-.367188 0-.664063-.296875-.664063-.664063zm0 0" fill-opacity=".235294"/><path d="m9.261719 4.507812h3.140625l.496094.496094v.660156h-3.636719zm0 0" fill="url(#i)"/><path d="m3.308594 1.449219c-.367188 0-.664063.292969-.664063.660156v.25c0-.367187.296875-.664063.664063-.664063h5.960937l3.628907 3.628907v-.246094l-3.628907-3.628906zm0 0" fill="#fff" fill-opacity=".392157"/><path d="m12.898438 5.078125-3.628907-3.628906v2.964843c0 .367188.296875.664063.664063.664063zm0 0" fill="url(#k)"/><path d="m9.269531 4.257812v.15625c0 .367188.296875.664063.664063.664063h2.964844l-.15625-.15625h-2.808594c-.367188 0-.664063-.296875-.664063-.664063zm0 0" fill-opacity=".235294"/><path d="m9.269531 1.449219v.246093l3.382813 3.382813h.246094zm0 0" fill="#fff" fill-opacity=".392157"/><path d="m9.269531 1.402344c-.023437 0-.046875.019531-.046875.046875v2.964843c0 .394532.316406.710938.710938.710938h2.964844c.019531 0 .039062-.011719.042968-.03125.007813-.015625.003906-.035156-.007812-.050781l-3.628906-3.628907c-.007813-.007812-.023438-.011718-.035157-.011718zm.046875.160156 3.46875 3.46875h-2.851562c-.34375 0-.617188-.273438-.617188-.617188zm0 0" fill="#212121"/><path d="m3.308594 1.402344c-.394532 0-.710938.316406-.710938.707031v11.246094c0 .390625.316406.707031.710938.707031h8.929687c.390625 0 .707031-.316406.707031-.707031v-8.277344c0-.015625-.003906-.027344-.011718-.035156l-3.628906-3.628907c-.007813-.007812-.019532-.011718-.035157-.011718zm0 .09375h5.941406l3.601562 3.601562v8.257813c0 .339843-.273437.613281-.613281.613281h-8.929687c-.34375 0-.617188-.273438-.617188-.613281v-11.246094c0-.339844.273438-.613281.617188-.613281zm0 0" fill="#212121"/><path d="m774.256781 706.23178c-12.754688.472396-24.092188 8.503125-30.70573 18.895833 6.613542 24.092188 1.417188 49.601563 0 74.166147-37.319271 1.417188-75.110938.944792-112.902606-.472396-28.816146 8.503125-38.736458 42.515626-3.779166 55.270313 37.791667-1.417187 75.583334-3.30677 112.902605-5.196354-1.417187 34.484896-1.889583 69.442189-1.417187 104.399481-27.871355 12.282291-53.853126 29.288542-75.583334 50.546354-46.294793 44.877605-66.135418 118.09896-40.626043 178.565628 19.840626 46.294792 82.196876 57.159896 124.240106 35.429688 14.644271-.944792 37.319271-30.70573 45.822396-17.951042 26.926563 45.822396 93.061981 2.361979 47.71198-53.853126 43.932813-50.073959 71.804168-111.957814 93.534376-174.78646 15.589063 2.834375 31.650522 6.613541 46.767189 12.282291v-49.129167c-2.36198-.472396-4.723959-1.417187-7.085938-1.889583-16.533854-2.834375-31.178125-5.196354-19.840625-23.147396 8.503125-12.754688 18.423437-16.061459 14.171875-27.398959-17.951042-5.66875-37.319271-8.030729-55.742709-12.282292-26.926563-5.66875-9.920313 35.902084-21.730209 51.491147-33.540104 1.889583-67.552605 5.196354-99.675522 14.171875 0-30.233334 1.417188-60.466668 3.779167-90.227606 62.356251-5.66875 124.712501-12.282291 186.596356-23.619791 20.785417-3.779167 20.785417-51.491147-15.116667-51.491147-49.601563 12.282292-100.147917 19.840625-150.694272 25.03698-24.564584 7.558333-12.754688-42.988022-3.306771-66.607814-12.754688-16.533854-25.509375-22.202604-37.319271-22.202604zm285.799482 208.798961c-22.202604 0-40.153646 18.423437-40.153646 41.098438v299.026566h59.994272v-113.375001h140.301564v113.375001h59.994271v-299.026566c0-22.675001-17.951041-41.098438-40.153646-41.098438zm-183.289585 52.435938c-14.644271 44.405209-31.650522 88.810418-59.521876 127.074481-12.754688-35.902084-22.675-72.74896-25.03698-111.013023 27.398959-7.558333 55.74271-14.171875 84.558856-16.061458zm223.443232 9.447917h99.675522c11.3375 0 20.313021 9.447916 20.313021 20.785417v82.196876h-140.301564v-82.196876c0-11.337501 8.975521-20.785417 20.313021-20.785417zm-358.548442 27.871354c2.834375 24.564584 6.141146 48.656772 11.3375 72.748959-1.417188 24.564584 32.122917 59.04948 5.66875 74.638543-22.202605 17.478646-58.104688 32.595313-84.08646 14.171875-15.589062-20.785417-12.282291-49.601563-7.085937-73.221355 8.975521-39.68125 40.153646-68.969792 74.166147-88.338022zm238.559899 170.062502c-23.619792 10.865105-49.601564 17.006251-74.166147 22.202605-18.423438-.472396-31.650521 80.307292 68.497396 44.877604 1.889584-.472395 3.779167-1.417187 5.668751-1.889583zm0 0" fill="url(#l)" stroke="#212121" stroke-width="11.338583" transform="scale(.00826902)"/></svg>

<?xml version="1.0" encoding="UTF-8"?>
<svg xmlns="http://www.w3.org/2000/svg" xmlns:xlink="http://www.w3.org/1999/xlink" width="16pt" height="16pt" viewBox="0 0 16 16" version="1.1">
<defs>
<linearGradient id="linear0" gradientUnits="userSpaceOnUse" x1="254" y1="233.5" x2="254" y2="254.66667" gradientTransform="matrix(0.031253,0,0,0.031253,0.33076,6.719392)">
<stop offset="0" style="stop-color:rgb(0%,0%,0%);stop-opacity:0.27451;"/>
<stop offset="1" style="stop-color:rgb(0%,0%,0%);stop-opacity:0;"/>
</linearGradient>
<radialGradient id="radial0" gradientUnits="userSpaceOnUse" cx="450.90894" cy="189.57936" fx="450.90894" fy="189.57936" r="21.166656" gradientTransform="matrix(0.0000000870852,-0.0390662,-0.0703192,-0.0000000507693,24.742284,31.797667)">
<stop offset="0" style="stop-color:rgb(0%,0%,0%);stop-opacity:0.313725;"/>
<stop offset="0.222222" style="stop-color:rgb(0%,0%,0%);stop-opacity:0.27451;"/>
<stop offset="1" style="stop-color:rgb(0%,0%,0%);stop-opacity:0;"/>
</radialGradient>
<radialGradient id="radial1" gradientUnits="userSpaceOnUse" cx="450.90894" cy="189.57936" fx="450.90894" fy="189.57936" r="21.166656" gradientTransform="matrix(-0.0000000870852,0.0390662,0.0703192,0.0000000507693,-9.196526,-3.76374)">
<stop offset="0" style="stop-color:rgb(0%,0%,0%);stop-opacity:0.313725;"/>
<stop offset="0.222222" style="stop-color:rgb(0%,0%,0%);stop-opacity:0.27451;"/>
<stop offset="1" style="stop-color:rgb(0%,0%,0%);stop-opacity:0;"/>
</radialGradient>
<radialGradient id="radial2" gradientUnits="userSpaceOnUse" cx="450.90894" cy="189.57936" fx="450.90894" fy="189.57936" r="21.166656" gradientTransform="matrix(-0.0000000870852,-0.0390662,0.0703192,-0.0000000507693,-9.196526,31.797667)">
<stop offset="0" style="stop-color:rgb(0%,0%,0%);stop-opacity:0.313725;"/>
<stop offset="0.222222" style="stop-color:rgb(0%,0%,0%);stop-opacity:0.27451;"/>
<stop offset="1" style="stop-color:rgb(0%,0%,0%);stop-opacity:0;"/>
</radialGradient>
<radialGradient id="radial3" gradientUnits="userSpaceOnUse" cx="450.90894" cy="189.57936" fx="450.90894" fy="189.57936" r="21.166656" gradientTransform="matrix(0.0000000870852,0.0390662,-0.0703192,0.0000000507693,24.742283,-3.76374)">
<stop offset="0" style="stop-color:rgb(0%,0%,0%);stop-opacity:0.313725;"/>
<stop offset="0.222222" style="stop-color:rgb(0%,0%,0%);stop-opacity:0.27451;"/>
<stop offset="1" style="stop-color:rgb(0%,0%,0%);stop-opacity:0;"/>
</radialGradient>
<linearGradient id="linear1" gradientUnits="userSpaceOnUse" x1="940" y1="1695.1182" x2="940" y2="175.11812" gradientTransform="matrix(0.00826902,0,0,0.00826902,0,0)">
<stop offset="0" style="stop-color:rgb(87.843137%,87.843137%,87.843137%);stop-opacity:1;"/>
<stop offset="1" style="stop-color:rgb(93.333333%,93.333333%,93.333333%);stop-opacity:1;"/>
</linearGradient>
<linearGradient id="linear2" gradientUnits="userSpaceOnUse" x1="249.18942" y1="233.5" x2="249.18942" y2="254.66669" gradientTransform="matrix(0.0149471,0,0,0.0546927,7.521212,-8.263145)">
<stop offset="0" style="stop-color:rgb(0%,0%,0%);stop-opacity:0.27451;"/>
<stop offset="1" style="stop-color:rgb(0%,0%,0%);stop-opacity:0;"/>
</linearGradient>
<linearGradient id="linear3" gradientUnits="userSpaceOnUse" x1="338.66666" y1="233.5" x2="338.66666" y2="-168.66667" gradientTransform="matrix(0.031253,0,0,0.031253,0,6.719392)">
<stop offset="0" style="stop-color:rgb(61.960784%,61.960784%,61.960784%);stop-opacity:1;"/>
<stop offset="1" style="stop-color:rgb(74.117647%,74.117647%,74.117647%);stop-opacity:1;"/>
</linearGradient>
<linearGradient id="linear4" gradientUnits="userSpaceOnUse" x1="350.80048" y1="198.31967" x2="357.47583" y2="-309.01959" gradientTransform="matrix(2.996023,0,0,2.996023,-251.00618,1100.9479)">
<stop offset="0" style="stop-color:rgb(61.960784%,61.960784%,61.960784%);stop-opacity:1;"/>
<stop offset="1" style="stop-color:rgb(74.117647%,74.117647%,74.117647%);stop-opacity:1;"/>
</linearGradient>
</defs>
<g id="surface1">
<path style=" stroke:none;fill-rule:nonzero;fill:url(#linear0);" d="M 3.96875 14.015625 L 11.578125 14.015625 L 11.578125 14.679688 L 3.96875 14.679688 Z M 3.96875 14.015625 "/>
<path style=" stroke:none;fill-rule:nonzero;fill:url(#radial0);" d="M 11.578125 14.015625 L 12.898438 14.015625 L 12.898438 13.355469 L 11.578125 13.355469 Z M 11.578125 14.015625 "/>
<path style=" stroke:none;fill-rule:nonzero;fill:url(#radial1);" d="M 3.96875 14.015625 L 2.644531 14.015625 L 2.644531 14.679688 L 3.96875 14.679688 Z M 3.96875 14.015625 "/>
<path style=" stroke:none;fill-rule:nonzero;fill:url(#radial2);" d="M 3.96875 14.015625 L 2.644531 14.015625 L 2.644531 13.355469 L 3.96875 13.355469 Z M 3.96875 14.015625 "/>
<path style=" stroke:none;fill-rule:nonzero;fill:url(#radial3);" d="M 11.578125 14.015625 L 12.898438 14.015625 L 12.898438 14.679688 L 11.578125 14.679688 Z M 11.578125 14.015625 "/>
<path style=" stroke:none;fill-rule:nonzero;fill:url(#linear1);" d="M 9.269531 1.449219 L 3.308594 1.449219 C 2.941406 1.449219 2.644531 1.742188 2.644531 2.109375 L 2.644531 13.355469 C 2.644531 13.722656 2.941406 14.015625 3.308594 14.015625 L 12.238281 14.015625 C 12.605469 14.015625 12.898438 13.722656 12.898438 13.355469 L 12.898438 5.078125 Z M 9.269531 1.449219 "/>
<path style=" stroke:none;fill-rule:nonzero;fill:rgb(0%,0%,0%);fill-opacity:0.235294;" d="M 2.644531 13.097656 L 2.644531 13.355469 C 2.644531 13.722656 2.941406 14.015625 3.308594 14.015625 L 12.238281 14.015625 C 12.605469 14.015625 12.898438 13.722656 12.898438 13.355469 L 12.898438 13.097656 C 12.898438 13.464844 12.605469 13.761719 12.238281 13.761719 L 3.308594 13.761719 C 2.941406 13.761719 2.644531 13.464844 2.644531 13.097656 Z M 2.644531 13.097656 "/>
<path style=" stroke:none;fill-rule:nonzero;fill:url(#linear2);" d="M 9.261719 4.507812 L 12.402344 4.507812 L 12.898438 5.003906 L 12.898438 5.664062 L 9.261719 5.664062 Z M 9.261719 4.507812 "/>
<path style=" stroke:none;fill-rule:nonzero;fill:rgb(100%,100%,100%);fill-opacity:0.392157;" d="M 3.308594 1.449219 C 2.941406 1.449219 2.644531 1.742188 2.644531 2.109375 L 2.644531 2.359375 C 2.644531 1.992188 2.941406 1.695312 3.308594 1.695312 L 9.269531 1.695312 L 12.898438 5.324219 L 12.898438 5.078125 L 9.269531 1.449219 Z M 3.308594 1.449219 "/>
<path style=" stroke:none;fill-rule:nonzero;fill:url(#linear3);" d="M 12.898438 5.078125 L 9.269531 1.449219 L 9.269531 4.414062 C 9.269531 4.78125 9.566406 5.078125 9.933594 5.078125 Z M 12.898438 5.078125 "/>
<path style=" stroke:none;fill-rule:nonzero;fill:rgb(0%,0%,0%);fill-opacity:0.235294;" d="M 9.269531 4.257812 L 9.269531 4.414062 C 9.269531 4.78125 9.566406 5.078125 9.933594 5.078125 L 12.898438 5.078125 L 12.742188 4.921875 L 9.933594 4.921875 C 9.566406 4.921875 9.269531 4.625 9.269531 4.257812 Z M 9.269531 4.257812 "/>
<path style=" stroke:none;fill-rule:nonzero;fill:rgb(100%,100%,100%);fill-opacity:0.392157;" d="M 9.269531 1.449219 L 9.269531 1.695312 L 12.652344 5.078125 L 12.898438 5.078125 Z M 9.269531 1.449219 "/>
<path style=" stroke:none;fill-rule:nonzero;fill:rgb(12.941176%,12.941176%,12.941176%);fill-opacity:1;" d="M 9.269531 1.402344 C 9.246094 1.402344 9.222656 1.421875 9.222656 1.449219 L 9.222656 4.414062 C 9.222656 4.808594 9.539062 5.125 9.933594 5.125 L 12.898438 5.125 C 12.917969 5.125 12.9375 5.113281 12.941406 5.09375 C 12.949219 5.078125 12.945312 5.058594 12.933594 5.042969 L 9.304688 1.414062 C 9.296875 1.40625 9.28125 1.402344 9.269531 1.402344 Z M 9.316406 1.5625 L 12.785156 5.03125 L 9.933594 5.03125 C 9.589844 5.03125 9.316406 4.757812 9.316406 4.414062 Z M 9.316406 1.5625 "/>
<path style=" stroke:none;fill-rule:nonzero;fill:rgb(12.941176%,12.941176%,12.941176%);fill-opacity:1;" d="M 3.308594 1.402344 C 2.914062 1.402344 2.597656 1.71875 2.597656 2.109375 L 2.597656 13.355469 C 2.597656 13.746094 2.914062 14.0625 3.308594 14.0625 L 12.238281 14.0625 C 12.628906 14.0625 12.945312 13.746094 12.945312 13.355469 L 12.945312 5.078125 C 12.945312 5.0625 12.941406 5.050781 12.933594 5.042969 L 9.304688 1.414062 C 9.296875 1.40625 9.285156 1.402344 9.269531 1.402344 Z M 3.308594 1.496094 L 9.25 1.496094 L 12.851562 5.097656 L 12.851562 13.355469 C 12.851562 13.695312 12.578125 13.96875 12.238281 13.96875 L 3.308594 13.96875 C 2.964844 13.96875 2.691406 13.695312 2.691406 13.355469 L 2.691406 2.109375 C 2.691406 1.769531 2.964844 1.496094 3.308594 1.496094 Z M 3.308594 1.496094 "/>
<path style="fill-rule:nonzero;fill:url(#linear4);stroke-width:11.338583;stroke-linecap:butt;stroke-linejoin:miter;stroke:rgb(12.941176%,12.941176%,12.941176%);stroke-opacity:1;stroke-miterlimit:4;" d="M 774.256781 706.23178 C 761.502093 706.704176 750.164593 714.734905 743.551051 725.127613 C 750.164593 749.219801 744.968239 774.729176 743.551051 799.29376 C 706.23178 800.710948 668.440113 800.238552 630.648445 798.821364 C 601.832299 807.324489 591.911987 841.33699 626.869279 854.091677 C 664.660946 852.67449 702.452613 850.784907 739.771884 848.895323 C 738.354697 883.380219 737.882301 918.337512 738.354697 953.294804 C 710.483342 965.577095 684.501571 982.583346 662.771363 1003.841158 C 616.47657 1048.718763 596.635945 1121.940118 622.14532 1182.406786 C 641.985946 1228.701578 704.342196 1239.566682 746.385426 1217.836474 C 761.029697 1216.891682 783.704697 1187.130744 792.207822 1199.885432 C 819.134385 1245.707828 885.269803 1202.247411 839.919802 1146.032306 C 883.852615 1095.958347 911.72397 1034.074492 933.454178 971.245846 C 949.043241 974.080221 965.1047 977.859387 980.221367 983.528137 L 980.221367 934.39897 C 977.859387 933.926574 975.497408 932.981783 973.135429 932.509387 C 956.601575 929.675012 941.957304 927.313033 953.294804 909.361991 C 961.797929 896.607303 971.718241 893.300532 967.466679 881.963032 C 949.515637 876.294282 930.147408 873.932303 911.72397 869.68074 C 884.797407 864.01199 901.803657 905.582824 889.993761 921.171887 C 856.453657 923.06147 822.441156 926.368241 790.318239 935.343762 C 790.318239 905.110428 791.735427 874.877094 794.097406 845.116156 C 856.453657 839.447406 918.809907 832.833865 980.693762 821.496365 C 1001.479179 817.717198 1001.479179 770.005218 965.577095 770.005218 C 915.975532 782.28751 865.429178 789.845843 814.882823 795.042198 C 790.318239 802.600531 802.128135 752.054176 811.576052 728.434384 C 798.821364 711.90053 786.066677 706.23178 774.256781 706.23178 Z M 1060.056263 915.030741 C 1037.853659 915.030741 1019.902617 933.454178 1019.902617 956.129179 L 1019.902617 1255.155745 L 1079.896889 1255.155745 L 1079.896889 1141.780744 L 1220.198453 1141.780744 L 1220.198453 1255.155745 L 1280.192724 1255.155745 L 1280.192724 956.129179 C 1280.192724 933.454178 1262.241683 915.030741 1240.039078 915.030741 Z M 876.766678 967.466679 C 862.122407 1011.871888 845.116156 1056.277097 817.244802 1094.54116 C 804.490114 1058.639076 794.569802 1021.7922 792.207822 983.528137 C 819.606781 975.969804 847.950532 969.356262 876.766678 967.466679 Z M 1100.20991 976.914596 L 1199.885432 976.914596 C 1211.222932 976.914596 1220.198453 986.362512 1220.198453 997.700013 L 1220.198453 1079.896889 L 1079.896889 1079.896889 L 1079.896889 997.700013 C 1079.896889 986.362512 1088.87241 976.914596 1100.20991 976.914596 Z M 741.661468 1004.78595 C 744.495843 1029.350534 747.802614 1053.442722 752.998968 1077.534909 C 751.58178 1102.099493 785.121885 1136.584389 758.667718 1152.173452 C 736.465113 1169.652098 700.56303 1184.768765 674.581258 1166.345327 C 658.992196 1145.55991 662.298967 1116.743764 667.495321 1093.123972 C 676.470842 1053.442722 707.648967 1024.15418 741.661468 1004.78595 Z M 980.221367 1174.848452 C 956.601575 1185.713557 930.619803 1191.854703 906.05522 1197.051057 C 887.631782 1196.578661 874.404699 1277.358349 974.552616 1241.928661 C 976.4422 1241.456266 978.331783 1240.511474 980.221367 1240.039078 Z M 980.221367 1174.848452 " transform="matrix(0.00826902,0,0,0.00826902,0,0)"/>
</g>
</svg>
